X: 178
T: Paddy O'Rafferty
C: anon.
O: Ireland
B: Francis O'Neill: "The Dance Music of Ireland" (1907) no. 178
R: Double jig
Z: Transcribed by Frank Nordberg - http://www.musicaviva.com
F: http://www.musicaviva.com/abc/tunes/ireland/oneill-1001/oneill-1001-017
8.abc
M: 6/8
L: 1/8
K: G
GAB DED|DcB AGE|GAB DED|GAG GED|GAB DED|DcB ABc|dcB AGE|GAG GED::DBB DAA|


